-----BEGIN PGP PUBLIC KEY BLOCK-----

mQINBGmyMD0BEADAORxV+EcMLQq+weiZgTnFDWPvIffRW2InvDSqGe9lXa1bB5Lw
4exsnmXiZm5niJ6nxVLHQNdv61TrbY2mfW06wlqtvi/EVmuo7ivQgtPxIRihNtSK
ek6/yw2N2bYodgKxRbihwFtJL2ddeUHdhs6HAn7srm41ztKYRBdukWH7/Kzhxcfy
MRt66rET/0Jq22LsYhrPxP32ZacszkGECgsfyUagi3pum7CBUtq2CDGzymY1lRbI
iEcNQHBsSe0mgp1rUo04efLJ1Ol7Uz2jyPlnU+qQEsIFU+k1amWwPu09UV1ouQax
riDqyjHFJrgpGgBNJL/FJ7g/+vt1JUUs4sBj3xLPuKm5SkbdXzdBv3DXZX0TbhVN
K+ZGvQ/48zBCGgH4fbnT02K/oLjnaA7LVtZeqZIpQk39TBWGlCJCGkpj/Hl6sz3K
tWFh25v1n1irOOm77iOMAaBOC4iU4zHTKvkSJExYsuf4tZ9R0wbInB2D3XUf4RdN
d5JFEh1h0R4qZZHSNLBBTfds5+mIBbKYVZPBTky8b60lT4zeqM6kNyO1n2avWonw
hq7Bg9/xHYH0mJ3ez6F/e/LNfx1cWxDoQpeps9Z6D4CpLjDrqvKo5OMxq/6MMH1z
WMlZeuBndUFLwsFiShAl8RULFfgHOAEyNUngb9g63gYomGn+fvt6hrjVsQARAQAB
tB9IYWlyYSA8bW1hcm90c2FoYUB2emVyb2xhYi5jb20+iQJSBBMBCAA8FiEESFBz
woem1OVWRpyJYTXSjRFTh3oFAmmyMD0DGy8EBQsJCAcCAiICBhUKCQgLAgQWAgMB
Ah4HAheAAAoJEGE10o0RU4d67AIP/iNZL6btSnstRcW1L6HR3h3QHSsoS6iRBrZs
+ZuhdWKUNZ2I+Y/3xXnxxv6zZmXMnSdkWkOk5jfA5zXhV2L9R9fUTtlEdxdSoPp7
8TS5EeK8ndxDCjJXLGB5646jqAlfplr3S22fpcVr2SLX/syGQ1L6yeiBHmZe6bWk
fnVvW1arihHAFZ/MuEUcLu6m18xbVSwp2ka2i1GemWK0X+KYWgy+zt1fqw4MO9qj
7qJRs0iGOYYtC5705q7Q+GwcZ7ddKSrVRz9p4Oowvqcu39PfIOIFrw/MSjhMbB0r
nKREYAHy17dmNJW4JEeATR5PbkMGN2RBOG1uRZjr8bCDTqApmApH+S6aXaBj9qKT
CmHtbga51/SzaHKImJgYN3c9/wdhTMyoQAKk2eDiQGLkSavr8eQ6c64LLmIdOE2L
MgAPrg3VSVwYX9iJYlFJX/RqlMqgKy1RY2YMRWNar0R2wVltO7fmdgrQYl2x2car
MXrMtzylv/1bvxIe2//vaHx21/KfQxj77emWMltrf6Y5U2dyckNp8kySolfSDd0X
hMeN6pxha94fn5IorzYPa/3UPqSTO55FBqSjHNwxtKzOVZtPP7eZAE3Zc40XE/Zv
ni31Luk3LSxUxlga656XtgTv3WuoobAADALXh/GaXDSML8tU2vTgqlO1JgYKhvJR
Og1jG/5wuQINBGmyMD0BEAC9laAI1pnrH5lxqOIa+diI20lVoazDTVDjPDwIEFer
iPi7yEEgWilJjJ2wG/IjCXPPNzpPBlE5JQaeSGuJv79t7OuRHg2AzciYfuk7vRhh
9WREOMgSc+rsVAwUaC85NEwuaGQx9WLsu3I1g49OndIoGKWayBW2S1bDKrNHs8G0
OPh+OxmZ7GSZRlLBxaEVj5YLIM8c4+Zjy25JOeSqfr17W8nBOig9Cs+4XUAUPvqt
/l6XUKBrCtAg+Nujei1zEmYgVKqHy/xZnfYWHaLAHpPB8o45FYCgLDazJO3lQfDB
kb6YCW8C8vHXzOhmGUsmCnt2IKZT/z/b4GWTnZRB+17GK8IkdmLAg5bLoeGhzP+7
vHT5vRvSa/AAFug/itNlo7Zfr6e02BvjYotrbSzltyN1C65d5q78GMxKKWdTIxvm
hO6xR4H7Kol7dYhdUnHE1zYkIHdHRxYuPwyoZIfExF9wTxkjHbleAWe7pDXM23E+
lfcpsLoZPVf7NxU5w8K6wYUT1rNNIFVaBQotw+O1KtLHFb0yyVMs7TXDlNsytvmL
8XixSAT66FGqZ7NkUVoDa91WVoeLHR/YM7W3HipPUyg6aU0iKNqm3LwpCOWohya1
xrMjQ7VkxIQJd5B90NY1XeuXPmqNdyFGfitXuUGlOI3NMNZvXVQRHaU4GjaDP2LF
TwARAQABiQRsBBgBCAAgFiEESFBzwoem1OVWRpyJYTXSjRFTh3oFAmmyMD0CGy4C
QAkQYTXSjRFTh3rBdCAEGQEIAB0WIQQ1dHVFyuGPlA5lSiWeFVSQTVhoVgUCabIw
PQAKCRCeFVSQTVhoVh/pD/9j30prcToodVVgqzGtW5AVrXj6yEZHlyY41xX7JOBu
lcNzYTBewTCvtb0L59uv90nB3QL0xsanyhqJW9sHsZrVwvwYvgE8mOFpaPv4HngV
WQILj3bOvcx+ntRuI9gpKsi4XzcZA1nt89Kyl8kQjGaq4FQxN8lcUyeXtv+61Ssd
T0gN4xqWIy7RJjN47Yuvmg86mw3qHLi3IQSn+S8tKTYkrcbKyvRzPK9ssvZe9k0p
ns7n8e/i0Zi3KlfbOlgu6ommyzmF2ApIrYV6CowFMRvjJUEaR3Igs+z9O+4M1XsS
K5+tWS1LtRsUFIjjVaADQrlgxpj8RVNH9o8DIn1iD19wK1NtkjChjwrxxCfiX6z2
NO9pZ79f5VFhN5730IvKaK9TfIcZ4cVzSQXZxgOav0O6BABppYq/vSgNGAOgPUu7
A1tuRwktVSpvibXuu0wefJDj7JJNfIWvebS/5Nq9Op9WzFONOo+UUKsw0GIUYlPZ
jigMwnMgHPg6YM+kylXbndlK4R1stwblbItPjUreZTF6DCicR67RF2F4cqMvQYrw
zKcF6aMWBpArDY40YMFLYyM1geqThoOpr2rb7iwqToO9s/R0vWPEmYEogbW63SrH
85e9IzqSWclJIT72PeUkXlYpe8p7ZE7TasFLjSPgj7HWeKbCDF2M3Odz+sd/3FOs
jVL6EACd6TzzuU1+thyggc3mkGt+whu8I+bOIdKPmtssptapuKvpd1LPmDSdQsJV
1Sgi5CYmug1ZhjVnUEQffgi4udUFvZefRnw2b1BcUC4IcorXp2gpMkX9lviGBBhK
kvLVcn2h81Iv2aA03olV6qCUrOYbnUopViiyznq9BPnOLoioNYPmmp1luRJ3PuF0
TewRlckF5pwEZGAJFXmMLP1yzRyf5KdYuxkFyzGBOWKlmQSqlH5yc8g3gJNcOBYG
iPF+magXjpJypF+t6WeGWt4dEt3UBQYDxAH4MmSzalNiOXFEATq82D3vRTPCeFLG
J/9RyuL5F7vjAcgDVa0rT7ONXZphPKkUvJF94/r8bYv6sy99C5zkvvvEhFG/E69r
0wikjf89MzYBjEG1I5jbYbD29ka1mA2Xn0wBI+Zuai2E62pQmz+5jbMH61HwFNUL
twYCEHnQj2wlCm16HtxI5Slu53Dyw6L/SOPWUSlH58iFwaJOuRhS2vB7Kal2gWoj
4f0bRmnUX82V543uvMIACKZRkZzhmg3Wli+sawSBSUrpmfQ8yffvSLXJQoSXLcUR
ESoDIuoRacLNgFw+RFJJYZdr0zji5uj30lqTAbJWSELhRpwZJn/i+IYGfEVemFnW
0239WJgjYH7DMBGuat2L2VpYXEaa9mbZ+xLvxiAqUXJCC9c4gQ==
=hSHa
-----END PGP PUBLIC KEY BLOCK-----
